X: 1
T: Little Diamond, The
M: 2/4
L: 1/8
R: polka
K: Dmaj
B2 | A>B AF | DE FD | A>B AF | GF EF | DE FG | AB cd | ed ce | d2 :||!
e2 | f2 ge | fd cB | Ad cd | fe e2  | f2 ge | fd cB | Ag ec | d2 :||!
